X:1
T:Title
%%score { ( 1 3 ) | ( 2 4 ) }
L:1/8
M:4/4
K:Bb
V:1 treble nm="Grand Piano"
V:3 treble 
V:2 bass 
V:4 bass 
V:1
 z4 z2[Q:1/4=112] [B,D]>[CE] | [DF]2 [EG]2 [DF]2 [DB]>[Ec] | [Fd]2 [Ge]2 [Fd]2 [EA]>[FB] | %3
 [Fc]2 [Fe]2 [FA]2 [FB]2 | z4 c2 z2 | [DF]2 [EG]2 [DF]2 [DB]>[Ec] |[M:3/4] [Fd]2 [Ge]2 [Fd]2 | %7
[M:1/4] [Fd]>[Fd] |[M:4/4] [Fc]2 [Ff]2 [=Ec]>[Ed] [Ec]>[EB] |[M:3/4] [FA]2 [=EG]2 F2 | %10
[M:1/4] (3FGA |[M:3/4] [DB]4 z2 |[M:1/4] z2 |[M:4/4] [Fd]2 [Fd]2 [DB]2 (3FBd | %14
 f2 [FB]2 [Fe]2 [Fd]2 | c6 z2 | [DB]4 z4 | d2 d2 [DB]2 (3FBd | f2- [Bf]2 [Ef]2- [EAf]2 | f4 e4 | %20
 z4 c4 |[M:3/4] [DB]6 |] %22
V:2
 z4 z2 [B,,F,]>[B,,F,] | [B,,B,]2 [B,,B,]2 [B,,B,]2 [B,,F,]>[B,,F,] | %2
 [B,,B,]2 [B,,B,]2 [B,,B,]2 [C,F,]>[D,B,] | [F,A,]2 [F,C]2 [E,C]2 [D,B,]2 | %4
 [C,B,]>[B,C=E] [A,CE]>[G,CE] [F,F]>E, [D,F,B,]>[C,F,C] | %5
 [B,,B,]2 [B,,B,]2 [B,,B,]2 [B,,F,]>[B,,F,] |[M:3/4] [B,,B,]2 [B,,B,]2 [B,,B,]2 | %7
[M:1/4] [B,,B,]>[B,,B,] |[M:4/4] [C,A,]2 [C,A,]2 [C,G,]>[C,G,] [C,G,]>[C,G,] | %9
[M:3/4] [C,C]2 [C,B,]2 [F,A,]2 |[M:1/4] (3z EE |[M:3/4] [B,,F,]2 B,,2 B,,2 |[M:1/4] (3B,,D,F, | %13
[M:4/4] B,2 B,2 [B,,F,]2 z2 | [B,DF]2 [D,B,]2 [C,A,]2 [B,,B,]2 | %15
 [F,A,F]2 [G,B,]2 [F,A,]2 (3z =E_E | [B,,F,]2 B,,2 B,,2 (3B,,D,F, | %17
 [B,F]2 [B,F]2[K:bass] [B,,F,]2 z2 | C4 z4 | [B,DB]2[K:bass] [D,B,]2 [E,B,]4 | z4 E4 | %21
[M:3/4] [B,,F,]6 |] %22
V:3
 x8 | x8 | x8 | x8 | [=Ec]>G A>B z z/ C/ D>_E | x8 |[M:3/4] x6 |[M:1/4] x2 |[M:4/4] x8 | %9
[M:3/4] x6 |[M:1/4] x2 |[M:3/4] z2 F,2 [B,DF]2 |[M:1/4] x2 |[M:4/4] x8 | x8 | z2 =E2 F2 (3FGA | %16
 z2 F,2 [B,DF]2 (3B,DF | x8 | A2 z2 c2 z2 | z2 _A2 G2 ^F2 | d4 z2 F,2 |[M:3/4] x6 |] %22
V:4
 x8 | x8 | x8 | x8 | z4 A,2 z2 | x8 |[M:3/4] x6 |[M:1/4] x2 |[M:4/4] x8 |[M:3/4] x6 |[M:1/4] x2 | %11
[M:3/4] x6 |[M:1/4] x2 |[M:4/4] x8 | x8 | x8 | x8 | x4[K:bass] x4 | F,2 G,2 A,2 F,2 | %19
 x2[K:bass] x6 | [F,B,F]4 [F,A,]2 z2 |[M:3/4] x6 |] %22

